X:0645
T:Quick Step.
M:2/4
L:1/8
Q:1/4=88
I: :: :: ::
Z:Jack Campin * www.campin.me.uk * 2009
K:G
DGGB|AGGg|dBBG|AEE2|DGGB|AGg2|dB d/c/B/A/|G2G2:|
gage|dBBg|dBBG|AEE2|gage|dBgb|agab       |g2g2:|
bgdg|bgdg|gdBG|AEE2|DGGB|AGg2|dB d/c/B/A/|G2G2:|

